src/images/SVG/Logo/WelcomeSectionLogo.svg

<svg width="68" height="68" viewBox="0 0 68 68" fill="none" xmlns="http://www.w3.org/2000/svg">
<rect width="68" height="68" rx="12" fill="#8BAA36"/>
<path d="M16.4014 16.55V24.5486V24.71V24.5486C16.4014 26.8324 17.3978 28.8545 18.9428 30.1631C19.6983 30.8031 20.1974 31.6671 20.1974 32.6261V45.9775C20.1974 47.4618 21.4729 48.6665 23.0445 48.6665C24.6161 48.6665 25.8916 47.4618 25.8916 45.9775V32.6261C25.8916 31.6671 26.3907 30.8031 27.1462 30.1631C28.6912 28.8545 29.6876 26.8324 29.6876 24.5486V16.55V24.5486" stroke="#FAFAFA" stroke-width="3" stroke-linecap="round" stroke-linejoin="round"/>
<path d="M23.043 25.3627V16.3997" stroke="#FAFAFA" stroke-width="3" stroke-linecap="round" stroke-linejoin="round"/>
<path d="M48.667 18.2854C48.667 17.2958 47.8166 16.4927 46.7689 16.4927H44.8709C41.7258 16.4927 39.1768 18.9002 39.1768 21.8706V32.6263C39.1768 34.9638 40.7654 36.9339 42.9728 37.6743V45.9777C42.9728 47.4619 44.2483 48.6666 45.8199 48.6666C47.3915 48.6666 48.667 47.4619 48.667 45.9777V38.0041V18.2854Z" stroke="#FAFAFA" stroke-width="3" stroke-linecap="round" stroke-linejoin="round"/>
</svg>

<svg xmlns="http://www.w3.org/2000/svg" width="68" height="68" fill="none"><rect width="68" height="68" fill="#8BAA36" rx="12"/><path stroke="#FAFAFA" stroke-linecap="round" stroke-linejoin="round" stroke-width="3" d="M16.401 16.55v8.16-.161c0 2.283.997 4.306 2.542 5.614.755.64 1.254 1.504 1.254 2.463v13.352c0 1.484 1.276 2.688 2.848 2.688 1.571 0 2.847-1.204 2.847-2.688V32.626c0-.959.499-1.823 1.254-2.463 1.545-1.308 2.542-3.33 2.542-5.614V16.55v7.999M23.043 25.363V16.4M48.667 18.285c0-.99-.85-1.792-1.898-1.792H44.87c-3.145 0-5.694 2.407-5.694 5.378v10.755c0 2.338 1.588 4.308 3.796 5.048v8.304c0 1.484 1.275 2.689 2.847 2.689s2.847-1.205 2.847-2.69V18.286Z"/></svg>
